X: 137
T: Gandier xi li The pass of Gandir
L: 1/8
M: 2/4
K: C
E3A [I:setbarnb 1]| 
G2A2 | 
C DE2 | 
E CA,2 | 
G2A2 | 
e2c e | 
cA2c | 
A4 | 
e2A2 | 
A GE2 | 
G2A2 | 
e2c e | 
cA2c | 
A4 | 
A3d | 
c dE2 | 
A3d | 
c2G2 | 
A3c | 
G2E2 | 
DC2G | 
E4 | 
A G E c | 
A4 |]

@@@ Tune index: 8805
